/* XPM */
static const char * const neoqst_icon_xpm[] = {
/* columns rows colors chars-per-pixel */
"32 32 15 1 ",
"  c None",
". c #F1D900",
"X c #F2D901",
"o c #F1DA01",
"O c #F2DA01",
"+ c #F3DA01",
"@ c #F2DB01",
"# c #F1D902",
"$ c #F2D902",
"% c #F1DA02",
"& c #F1DB02",
"* c #F2DA02",
"= c #F3DA02",
"- c #F2DB02",
"; c #F3DB02",
/* pixels */
"                                ",
"                                ",
"                                ",
"                                ",
"                                ",
"                                ",
"                                ",
"                                ",
"                                ",
"                                ",
"                                ",
"                                ",
"      OOOO     OOOO  OOOOOOOO   ",
"     OOOOOOO  OOOOOO OOOOOOOO   ",
"    OOO   OO  OO        OO      ",
"    OO    OOO OOO       OO      ",
"    OO    OOO OOOOOO    OO      ",
"    OO    OOO    OOO    OO      ",
"    OOO   OO      OO    OO      ",
"     OOOOOOO  OOOOOO    OO      ",
"      OOOOO   OOOOO     OO      ",
"         OO                     ",
"          OO                    ",
"                                ",
"                                ",
"                                ",
"                                ",
"                                ",
"                                ",
"                                ",
"                                ",
"                                "
};
